X:1
T:Awake, O Earth
T:Awake, O Earth
T:John Henry Showalter
T:Lucy Randolph Fleming, 1899
T:Public Domain Courtesy of the Cyber Hymnal™
T:Public Domain Courtesy of the Cyber Hymnal™
C:John Henry Showalter
Z:Public Domain
Z:Courtesy of the Cyber Hymnal™
%%score ( 1 2 ) ( 3 4 )
L:1/8
Q:1/4=107
M:6/8
K:Bb
V:1 treble 
V:2 treble 
V:3 bass 
V:4 bass 
V:1
 [DF] | [DB]2 [Ec] [Fd]2 [Ec] | [DB]3- [DB]2 [DF] | [EG]2 [GB] [FA]2 [EG] | [DF]3- [DF]2 [DF] | %5
w: 1.~A-|wake, a- wake, O|earth! * Thy|ma- ny voic- es|raise, * And|
w: 2.~A-|wake, a- wake, O|earth! * For-|get the hour of|gloom, * When|
w: 3.~Bring|trea- sures of the|field, * Bring|leaf and blos- som|sweet; * Thy|
w: 4.~Lift|up thy gates with|praise, * And|robes of joy put|on; * The|
 [EG]2 [EA] [FB]2 [Fc] | [Fd]3- [Fd]2 [Fd] | [Fc]2 [=EG] [EA]2 [EB] | [Ec]3- [Ec]2 [DF] | %9
w: let the echo- ing|hills * Re-|peat the note of|praise. * Let|
w: in thy shud- dering|breast * Thy|Mak- er claimed a|tomb. * Put|
w: choic- est and thy|best, * Be-|fore His pierc- èd|feet. * While|
w: Lord of life and|death * Has|ris- en to His|throne; * He|
 [DB]2 [Ec] [Fd]2 [Ec] | [DB]3- [DB]2 [DF] | [EG]2 [GB] [FA]2 [EG] | [DF]3- [DF]2 [DF] | %13
w: all the isles re-|joice, * Let|seas take up the|strain; * Christ|
w: off thy win- try|robes * For|garb of joy- ous|spring; * Crown|
w: all thy sons are|glad, * And|tears are put a-|way, * Let|
w: hath gone up on|high, * And|giv- eth gifts to|men; * He|
 [FB]2 [Fc] [Fd]2 [Fe] | [Ff]3- [Ff]2 [Ge] | [Fd]2 [FB] (AB)[Fc] | [FB]3- [FB]2 ||"^Refrain" [Fd] | %18
w: from the dead hath|come, * He|lives, he lives * a-|gain. *||
w: thee with lil- ies|fair, * To|greet the ris- * en|King. *||
w: youth and age a-|like * Sing|“Christ is risen * to-|day.” *||
w: lives, no more to|die, * He|lives, he lives * a-|gain. *||
 [Fe]3- [Fe]2 [Fe] | [Fd]3- [Fd]2 [Fd] | [Fc]2 [=EG] [EA]2 [EB] | [Fc]3- [Fc]2 F | %22
w: ||||
w: ||||
w: ||||
w: ||||
 [FB]2 [Fc] [Fd]2 [Fe] | [Ff]3- [Ff]2 [Ge] | [Fd]2 [FB] (AB)[Fc] | [FB]3- [FB]2 |] %26
w: ||||
w: ||||
w: ||||
w: ||||
V:2
 x | x6 | x6 | x6 | x6 | x6 | x6 | x6 | x6 | x6 | x6 | x6 | x6 | x6 | x6 | x3 F2 x | x5 || x | x6 | %19
 x6 | x6 | x5 F | x6 | x6 | x3 F2 x | x5 |] %26
V:3
 [B,,B,] | [B,,F,]2 [B,,A,] [B,,B,]2 [B,,F,] | [B,,F,]3- [B,,F,]2 [B,,B,] | %3
w: |||
 [E,B,]2 [E,B,] [E,B,]2 [E,B,] | [B,,B,]3- [B,,B,]2 [B,,B,] | [E,B,]2 [E,C] [D,B,]2 [F,A,] | %6
w: |||
 B,3- B,2 [B,,B,] | [C,A,]2 [C,C] [C,C]2 [C,B,] | [F,A,]3- [F,A,]2 [B,,B,] | %9
w: He * *|||
 [B,,F,]2 [B,,A,] [B,,B,]2 [B,,F,] | [B,,F,]3- [B,,F,]2 [B,,B,] | [E,B,]2 [E,B,] [E,B,]2 [E,B,] | %12
w: |||
 [B,,B,]3- [B,,B,]2 [B,,B,] | [D,B,]2 [F,A,] B,2 [B,C] | [B,D]3- [B,D]2 [E,B,] | %15
w: |* * lives! *||
 [F,B,]2 [F,D] (CD)[F,E] | [B,,D]3- [B,,D]2 || B, | [F,C]2 [F,C] ([F,A,][G,B,])[A,C] | %19
w: ||Christ|lives! He lives * a-|
 B,2 [B,,B,] [B,,B,]2 [B,,B,] | [C,A,]2 [C,C] [C,C]2 [C,B,] | [F,A,]3- [F,A,]2 [E,C] | %22
w: gain. Our ris- en|Lord, to- day! Christ|from * the|
 [D,B,]2 [F,A,] B,2 [B,C] | [B,D]3- [B,D]2 [E,B,] | [F,B,]2 [F,D] (CD)[F,E] | [B,,D]3- [B,,D]2 |] %26
w: dead hath come, He|lives, * He|lives a- gain. * *||
V:4
 x | x6 | x6 | x6 | x6 | x6 | B,3- B,2 x | x6 | x6 | x6 | x6 | x6 | x6 | x3 B,2 x | x6 | x3 F,2 x | %16
 x5 || B, | x6 | B,2 x4 | x6 | x6 | x3 B,2 x | x6 | x3 F,2 x | x5 |] %26

